@extra/phlat-icons/symbolic-24/solaar-init.svg

<svg xmlns="http://www.w3.org/2000/svg" version="1.1" viewBox="-4 -4 24 24"><path opacity=".5" d="m2.334 1c-0.7388 0-1.334 0.5955-1.334 1.334v11.332c0 0.739 0.5952 1.334 1.334 1.334h11.332c0.739 0 1.334-0.595 1.334-1.334v-11.332c0-0.7385-0.595-1.334-1.334-1.334h-11.332zm3.123 2.4883a1.0001 1.0001 0 0 1 0.8575 0.4297l1.6855 2.3593 1.6855-2.3593a1.0001 1.0001 0 0 1 0.8285 -0.4297 1.0001 1.0001 0 0 1 0.8 1.5937l-1.3687 1.918h2.0547c0.554 0 1 0.446 1 1s-0.446 1-1 1h-2.0547l1.3687 1.918a1.001 1.001 0 1 1 -1.6285 1.164l-1.6855-2.3593-1.6855 2.3593a1.001 1.001 0 1 1 -1.629 -1.164l1.3692-1.918h-2.0547c-0.554 0-1-0.446-1-1s0.446-1 1-1h2.0547l-1.3692-1.918a1.0001 1.0001 0 0 1 0.7715 -1.5937zm2.543 3.5117c-0.554 0-1 0.446-1 1s0.446 1 1 1 1-0.446 1-1-0.446-1-1-1z" stroke-width=".87514" fill="#f1f2f2"/></svg>

<svg xmlns="http://www.w3.org/2000/svg" viewBox="-4 -4 24 24">
    <path opacity=".5" d="M2.334 1C1.595 1 1 1.596 1 2.334v11.332C1 14.405 1.595 15 2.334 15h11.332c.739 0 1.334-.595 1.334-1.334V2.334C15 1.595 14.405 1 13.666 1H2.334zm3.123 2.488a1 1 0 0 1 .858.43L8 6.278l1.685-2.36a1 1 0 0 1 .829-.43 1 1 0 0 1 .8 1.594L9.945 7H12c.554 0 1 .446 1 1s-.446 1-1 1H9.945l1.369 1.918a1.001 1.001 0 1 1-1.629 1.164L8 9.722l-1.686 2.36a1.001 1.001 0 1 1-1.629-1.164L6.055 9H4c-.554 0-1-.446-1-1s.446-1 1-1h2.055l-1.37-1.918a1 1 0 0 1 .772-1.594zM8 7c-.554 0-1 .446-1 1s.446 1 1 1 1-.446 1-1-.446-1-1-1z" stroke-width=".875" fill="#f1f2f2"/>
</svg>
